static/assets/emoji/svg/1f5f3.svg

<svg enable-background="new 0 0 128 128" viewBox="0 0 128 128" xmlns="http://www.w3.org/2000/svg" xmlns:xlink="http://www.w3.org/1999/xlink"><path d="M124,93H4L3.97,75.99l6.89-27.43c0.67-2.67,3.07-4.54,5.82-4.54h94.61c2.77,0,5.17,1.89,5.83,4.58 l6.68,27.4L124,93z" fill="#B0BEC5"/><linearGradient id="h" x1="64" x2="64" y1="55" y2="131.92" gradientUnits="userSpaceOnUse"><stop stop-color="#B0BEC5" offset="0"/><stop stop-color="#78909C" offset="1"/></linearGradient><path d="m118 124.01h-108c-3.31 0-6-2.69-6-6v-42h120v42c0 3.32-2.69 6-6 6z" fill="url(#h)"/><path d="m94 64.7h-60c-2.76 0-5-2.24-5-5s2.24-5 5-5h60c2.76 0 5 2.24 5 5s-2.24 5-5 5z" fill="#757575"/><g opacity=".2"><path d="m111.32 47.02c1.38 0 2.58 0.93 2.91 2.27l6.77 27.1v41.61c0 1.65-1.35 3-3 3h-108c-1.65 0-3-1.35-3-3v-41.61l6.77-27.1c0.33-1.34 1.53-2.27 2.91-2.27h94.64m0-3h-94.64c-2.75 0-5.15 1.87-5.82 4.54l-6.86 27.46v41.98c0 3.31 2.69 6 6 6h108c3.31 0 6-2.69 6-6v-41.98l-6.86-27.45c-0.67-2.67-3.07-4.55-5.82-4.55z" fill="#444"/></g><defs><rect id="g" x="31.12" y="3.44" width="65.75" height="61.27"/></defs><clipPath id="a"><use xlink:href="#g"/></clipPath><linearGradient id="e" x1="64.002" x2="64.002" y1="10.839" y2="63.579" gradientUnits="userSpaceOnUse"><stop stop-color="#FFEE58" offset=".4154"/><stop stop-color="#FDD835" offset="1"/></linearGradient><path d="m85.24 10.49h-42.48c-3.31 0-6 2.69-6 6v48.21h54.48v-48.21c0-3.31-2.68-6-6-6z" clip-path="url(#a)" fill="url(#e)"/><linearGradient id="d" x1="64.002" x2="64.002" y1="10.869" y2="68.282" gradientUnits="userSpaceOnUse"><stop stop-color="#FFEE58" offset=".4104"/><stop stop-color="#FDD835" offset=".6832"/><stop stop-color="#EBC620" offset=".9155"/></linearGradient><path d="m85.24 10.49h-42.48c-3.31 0-6 2.69-6 6v53.02h54.48v-53.02c0-3.31-2.68-6-6-6z" clip-path="url(#a)" fill="url(#d)"/><g clip-path="url(#a)" opacity=".2"><path d="m85.24 13.49c1.65 0 3 1.35 3 3v50.02h-48.48v-50.02c0-1.65 1.35-3 3-3h42.48m0-3h-42.48c-3.31 0-6 2.69-6 6v53.02h54.48v-53.02c0-3.31-2.68-6-6-6z" fill="#444"/></g><g fill="#795548"><path d="m72.41 53.6-23.13-23.14c-1.74-1.74-1.74-4.57 0-6.31s4.57-1.74 6.31 0l23.13 23.13c1.74 1.74 1.74 4.57 0 6.31-1.74 1.75-4.57 1.75-6.31 0.01z"/><path d="m49.28 47.29 23.13-23.13c1.74-1.74 4.57-1.74 6.31 0s1.74 4.57 0 6.31l-23.13 23.13c-1.74 1.74-4.57 1.74-6.31 0-1.74-1.75-1.74-4.57 0-6.31z"/></g><linearGradient id="c" x1="63.999" x2="63.999" y1="64.697" y2="59.57" gradientUnits="userSpaceOnUse"><stop stop-color="#444" offset="0"/><stop stop-color="#444" stop-opacity="0" offset="1"/></linearGradient><path d="m29.01 59.57c0 0.04-0.01 0.08-0.01 0.13 0 2.76 2.24 5 5 5h60c2.76 0 5-2.24 5-5 0-0.04-0.01-0.08-0.01-0.13h-69.98z" fill="url(#c)" opacity=".4"/><g display="none"><g display="inline"><g opacity=".6"><circle cx="64" cy="64" r="28" fill="none" opacity=".61" stroke="#000" stroke-miterlimit="10" stroke-width=".2625"/><line x1="84" x2="84" y2="128" fill="none" opacity=".61" stroke="#000" stroke-miterlimit="10" stroke-width=".25"/><line x1="44" x2="44" y2="128" fill="none" opacity=".61" stroke="#000" stroke-miterlimit="10" stroke-width=".25"/><line x1="64" x2="64" y2="128" fill="none" opacity=".61" stroke="#000" stroke-miterlimit="10" stroke-width=".25"/><line x1="128" y1="64" y2="64" fill="none" opacity=".61" stroke="#000" stroke-miterlimit="10" stroke-width=".25"/><line x1="128" y1="44" y2="44" fill="none" opacity=".61" stroke="#000" stroke-miterlimit="10" stroke-width=".25"/><line x1="128" y1="83.75" y2="83.75" fill="none" opacity=".61" stroke="#000" stroke-miterlimit="10" stroke-width=".25"/><line x1="128" y1="128" fill="none" opacity=".61" stroke="#000" stroke-miterlimit="10" stroke-width=".25"/><line x2="128" y1="128" fill="none" opacity=".61" stroke="#000" stroke-miterlimit="10" stroke-width=".25"/><g opacity=".61"><path d="M64,4.26c32.94,0,59.74,26.8,59.74,59.74S96.94,123.74,64,123.74S4.26,96.94,4.26,64S31.06,4.26,64,4.26 M64,4 C30.86,4,4,30.86,4,64s26.86,60,60,60s60-26.86,60-60S97.14,4,64,4L64,4z"/></g><path d="m107.97 115.97h-87.94c-4.42 0-8.03-3.61-8.03-8.03v-87.91c0-4.42 3.61-8.03 8.03-8.03h87.94c4.42 0 8.03 3.61 8.03 8.03v87.91c0 4.42-3.61 8.03-8.03 8.03z" fill="none" opacity=".61" stroke="#000" stroke-miterlimit="10" stroke-width=".2578"/><path d="m100 124h-72c-4.4 0-8-3.6-8-8v-104c0-4.4 3.6-8 8-8h72c4.4 0 8 3.6 8 8v104c0 4.4-3.6 8-8 8z" fill="none" opacity=".61" stroke="#000" stroke-miterlimit="10" stroke-width=".2628"/><path d="M113.77,108H14.23 C8.6,108,4,103.4,4,97.77V30.28c0-5.63,4.6-10.23,10.23-10.23h99.54c5.63,0,10.23,4.6,10.23,10.23v67.48 C124,103.4,119.4,108,113.77,108z" fill="none" opacity=".61" stroke="#000" stroke-miterlimit="10" stroke-width=".2627"/></g><g opacity=".2"><defs><rect id="f" width="128" height="128" opacity=".2"/></defs><clipPath id="b"><use xlink:href="#f"/></clipPath><g clip-path="url(#b)"><g fill="none" stroke="#000" stroke-miterlimit="10" stroke-width=".25"><line x1="-28" x2="-28" y1="160" y2="-32"/><line x1="-24" x2="-24" y1="160" y2="-32"/><line x1="-20" x2="-20" y1="160" y2="-32"/><line x1="-16" x2="-16" y1="160" y2="-32"/><line x1="-12" x2="-12" y1="160" y2="-32"/><line x1="-8" x2="-8" y1="160" y2="-32"/><line x1="-4" x2="-4" y1="160" y2="-32"/><line y1="160" y2="-32"/><line x1="4" x2="4" y1="160" y2="-32"/><line x1="8" x2="8" y1="160" y2="-32"/><line x1="12" x2="12" y1="160" y2="-32"/><line x1="16" x2="16" y1="160" y2="-32"/><line x1="20" x2="20" y1="160" y2="-32"/><line x1="24" x2="24" y1="160" y2="-32"/><line x1="28" x2="28" y1="160" y2="-32"/><line x1="32" x2="32" y1="160" y2="-32"/><line x1="36" x2="36" y1="160" y2="-32"/><line x1="40" x2="40" y1="160" y2="-32"/><line x1="44" x2="44" y1="160" y2="-32"/><line x1="48" x2="48" y1="160" y2="-32"/><line x1="52" x2="52" y1="160" y2="-32"/><line x1="56" x2="56" y1="160" y2="-32"/><line x1="60" x2="60" y1="160" y2="-32"/><line x1="64" x2="64" y1="160" y2="-32"/><line x1="68" x2="68" y1="160" y2="-32"/><line x1="72" x2="72" y1="160" y2="-32"/><line x1="76" x2="76" y1="160" y2="-32"/><line x1="80" x2="80" y1="160" y2="-32"/><line x1="84" x2="84" y1="160" y2="-32"/><line x1="88" x2="88" y1="160" y2="-32"/><line x1="92" x2="92" y1="160" y2="-32"/><line x1="96" x2="96" y1="160" y2="-32"/><line x1="100" x2="100" y1="160" y2="-32"/><line x1="104" x2="104" y1="160" y2="-32"/><line x1="108" x2="108" y1="160" y2="-32"/><line x1="112" x2="112" y1="160" y2="-32"/><line x1="116" x2="116" y1="160" y2="-32"/><line x1="120" x2="120" y1="160" y2="-32"/><line x1="124" x2="124" y1="160" y2="-32"/><line x1="128" x2="128" y1="160" y2="-32"/><line x1="132" x2="132" y1="160" y2="-32"/><line x1="136" x2="136" y1="160" y2="-32"/><line x1="137" x2="137" y1="166.05" y2="-25.95"/><line x1="144" x2="144" y1="160" y2="-32"/><line x1="148" x2="148" y1="160" y2="-32"/><line x1="152" x2="152" y1="160" y2="-32"/><line x1="156" x2="156" y1="160" y2="-32"/></g><g fill="none" stroke="#000" stroke-miterlimit="10" stroke-width=".25"><line x1="-32" x2="160" y1="-28" y2="-28"/><line x1="-32" x2="160" y1="-24" y2="-24"/><line x1="-32" x2="160" y1="-20" y2="-20"/><line x1="-32" x2="160" y1="-16" y2="-16"/><line x1="-32" x2="160" y1="-12" y2="-12"/><line x1="-32" x2="160" y1="-8" y2="-8"/><line x1="-32" x2="160" y1="-4" y2="-4"/><line x1="-32" x2="160"/><line x1="-32" x2="160" y1="4" y2="4"/><line x1="-32" x2="160" y1="8" y2="8"/><line x1="-32" x2="160" y1="12" y2="12"/><line x1="-32" x2="160" y1="16" y2="16"/><line x1="-32" x2="160" y1="20" y2="20"/><line x1="-32" x2="160" y1="24" y2="24"/><line x1="-32" x2="160" y1="28" y2="28"/><line x1="-32" x2="160" y1="32" y2="32"/><line x1="-32" x2="160" y1="36" y2="36"/><line x1="-32" x2="160" y1="40" y2="40"/><line x1="-32" x2="160" y1="44" y2="44"/><line x1="-32" x2="160" y1="48" y2="48"/><line x1="-32" x2="160" y1="52" y2="52"/><line x1="-32" x2="160" y1="56" y2="56"/><line x1="-32" x2="160" y1="60" y2="60"/><line x1="-32" x2="160" y1="64" y2="64"/><line x1="-32" x2="160" y1="68" y2="68"/><line x1="-32" x2="160" y1="72" y2="72"/><line x1="-32" x2="160" y1="76" y2="76"/><line x1="-32" x2="160" y1="80" y2="80"/><line x1="-32" x2="160" y1="84" y2="84"/><line x1="-32" x2="160" y1="88" y2="88"/><line x1="-32" x2="160" y1="92" y2="92"/><line x1="-32" x2="160" y1="96" y2="96"/><line x1="-32" x2="160" y1="100" y2="100"/><line x1="-32" x2="160" y1="104" y2="104"/><line x1="-32" x2="160" y1="108" y2="108"/><line x1="-32" x2="160" y1="112" y2="112"/><line x1="-32" x2="160" y1="116" y2="116"/><line x1="-32" x2="160" y1="120" y2="120"/><line x1="-32" x2="160" y1="124" y2="124"/><line x1="-32" x2="160" y1="128" y2="128"/><line x1="-32" x2="160" y1="132" y2="132"/><line x1="-32" x2="160" y1="136" y2="136"/><line x1="-32" x2="160" y1="140" y2="140"/><line x1="-32" x2="160" y1="144" y2="144"/><line x1="-32" x2="160" y1="148" y2="148"/><line x1="-32" x2="160" y1="152" y2="152"/><line x1="-32" x2="160" y1="156" y2="156"/></g><path d="m159.75-31.75v191.5h-191.5v-191.5h191.5m0.25-0.25h-192v192h192v-192z"/></g></g><g fill="#EF4438"><rect width="4" height="128" opacity=".3"/><rect x="124" width="4" height="128" opacity=".3"/><rect transform="matrix(-1.837e-16 1 -1 -1.837e-16 66 -62)" x="62" y="-58" width="4" height="120" opacity=".3"/><rect transform="matrix(-1.837e-16 1 -1 -1.837e-16 190 62)" x="62" y="66" width="4" height="120" opacity=".3"/></g></g></g></svg>

<svg viewBox="0 0 128 128" xmlns="http://www.w3.org/2000/svg" xmlns:xlink="http://www.w3.org/1999/xlink"><path d="M124 93H4l-.03-17.01 6.89-27.43a6 6 0 0 1 5.82-4.54h94.61a6 6 0 0 1 5.83 4.58L123.8 76l.2 17z" fill="#B0BEC5"/><linearGradient id="a" x1="64" x2="64" y1="55" y2="131.92" gradientUnits="userSpaceOnUse"><stop stop-color="#B0BEC5" offset="0"/><stop stop-color="#78909C" offset="1"/></linearGradient><path d="M118 124.01H10c-3.31 0-6-2.69-6-6v-42h120v42c0 3.32-2.69 6-6 6z" fill="url(#a)"/><path d="M94 64.7H34c-2.76 0-5-2.24-5-5s2.24-5 5-5h60c2.76 0 5 2.24 5 5s-2.24 5-5 5z" fill="#757575"/><path d="M111.32 47.02c1.38 0 2.58.93 2.91 2.27l6.77 27.1V118c0 1.65-1.35 3-3 3H10c-1.65 0-3-1.35-3-3V76.39l6.77-27.1a2.986 2.986 0 0 1 2.91-2.27h94.64m0-3H16.68a6 6 0 0 0-5.82 4.54L4 76.02V118c0 3.31 2.69 6 6 6h108c3.31 0 6-2.69 6-6V76.02l-6.86-27.45a6.01 6.01 0 0 0-5.82-4.55z" fill="#444" opacity=".2"/><defs><path id="b" d="M31.12 3.44h65.75v61.27H31.12z"/></defs><clipPath id="c"><use xlink:href="#b"/></clipPath><linearGradient id="d" x1="64.002" x2="64.002" y1="10.839" y2="63.579" gradientUnits="userSpaceOnUse"><stop stop-color="#FFEE58" offset=".415"/><stop stop-color="#FDD835" offset="1"/></linearGradient><path d="M85.24 10.49H42.76c-3.31 0-6 2.69-6 6V64.7h54.48V16.49c0-3.31-2.68-6-6-6z" clip-path="url(#c)" fill="url(#d)"/><linearGradient id="e" x1="64.002" x2="64.002" y1="10.869" y2="68.282" gradientUnits="userSpaceOnUse"><stop stop-color="#FFEE58" offset=".41"/><stop stop-color="#FDD835" offset=".683"/><stop stop-color="#EBC620" offset=".915"/></linearGradient><path d="M85.24 10.49H42.76c-3.31 0-6 2.69-6 6v53.02h54.48V16.49c0-3.31-2.68-6-6-6z" clip-path="url(#c)" fill="url(#e)"/><g clip-path="url(#c)" opacity=".2"><path d="M85.24 13.49c1.65 0 3 1.35 3 3v50.02H39.76V16.49c0-1.65 1.35-3 3-3h42.48m0-3H42.76c-3.31 0-6 2.69-6 6v53.02h54.48V16.49c0-3.31-2.68-6-6-6z" fill="#444"/></g><g fill="#795548"><path d="M72.41 53.6L49.28 30.46c-1.74-1.74-1.74-4.57 0-6.31s4.57-1.74 6.31 0l23.13 23.13a4.466 4.466 0 0 1 0 6.31 4.457 4.457 0 0 1-6.31.01z"/><path d="M49.28 47.29l23.13-23.13c1.74-1.74 4.57-1.74 6.31 0s1.74 4.57 0 6.31L55.59 53.6a4.466 4.466 0 0 1-6.31 0 4.466 4.466 0 0 1 0-6.31z"/></g><linearGradient id="f" x1="63.999" x2="63.999" y1="64.697" y2="59.57" gradientUnits="userSpaceOnUse"><stop stop-color="#444" offset="0"/><stop stop-color="#444" stop-opacity="0" offset="1"/></linearGradient><path d="M29.01 59.57c0 .04-.01.08-.01.13 0 2.76 2.24 5 5 5h60c2.76 0 5-2.24 5-5 0-.04-.01-.08-.01-.13H29.01z" fill="url(#f)" opacity=".4"/></svg>
